packages/foundations/assets/icons/functional/images/file/image_32.svg

<svg width="32" height="32" viewBox="0 0 32 32" fill="none" xmlns="http://www.w3.org/2000/svg">
<g clip-path="url(#clip0_185_954)">
<path fill-rule="evenodd" clip-rule="evenodd" d="M25.9999 2.99988C27.5976 2.99988 29.0109 4.40499 29.0001 6V26C29.0001 27.5977 27.5625 29.0027 25.9999 29.0001H5.99988C4.4022 29.0001 3.00313 27.584 2.99988 26V6C2.99988 4.40232 4.41065 3.01268 5.99988 2.99988H25.9999ZM22.0559 17.471L16.7591 23.6508C16.4877 23.9675 16.0519 24.0793 15.6665 23.9429L9.99988 21.1429L4.99988 24.165V26C4.99988 26.5128 5.49187 27.0055 5.99988 27.0001H25.9999C26.5127 27.0001 27.0032 26.4568 27 26V22.4142L22.0559 17.471ZM5.99988 4.99993C5.47079 4.9969 5.00356 5.50316 4.99983 6V21.834L9.48538 19.1425C9.74191 18.9886 10.1948 18.9807 10.4499 19.14L15.7479 21.756L21.2406 15.3492C21.5926 14.9385 22.2001 14.8868 22.6149 15.2113L26.9999 19.585V6C26.9999 5.48716 26.526 5.01249 25.9999 4.99993H5.99988ZM10.9999 7C13.2091 7 14.9999 8.79087 14.9999 11C14.9999 13.2091 13.2091 15 10.9999 15C8.79065 15 6.99988 13.2091 6.99988 11C6.99988 8.79087 8.79065 7 10.9999 7ZM10.9999 9C9.89524 9 8.99988 9.89542 8.99988 11C8.99988 12.1046 9.89524 13 10.9999 13C12.1045 13 12.9999 12.1046 12.9999 11C12.9999 9.89542 12.1045 9 10.9999 9Z" fill="#1A1C1F"/>
</g>
<defs>
<clipPath id="clip0_185_954">
<rect width="32" height="32" fill="white"/>
</clipPath>
</defs>
</svg>

<svg xmlns="http://www.w3.org/2000/svg" width="32" height="32" fill="none"><g clip-path="url(#a)"><path fill="#1A1C1F" fill-rule="evenodd" d="M26 3c1.598 0 3.01 1.405 3 3v20c0 1.598-1.437 3.003-3 3H6c-1.598 0-2.997-1.416-3-3V6c0-1.598 1.41-2.987 3-3zM22.056 17.47l-5.297 6.18a1 1 0 0 1-1.093.292L10 21.143l-5 3.022V26c0 .513.492 1.006 1 1h20c.513 0 1.003-.543 1-1v-3.586zM6 5c-.53-.003-.996.503-1 1v15.834l4.485-2.692c.257-.153.71-.161.965-.002l5.298 2.616 5.493-6.407a1 1 0 0 1 1.374-.138L27 19.585V6c0-.513-.474-.988-1-1zm5 2a4 4 0 1 1 0 8 4 4 0 0 1 0-8m0 2a2 2 0 1 0 0 4 2 2 0 0 0 0-4" clip-rule="evenodd"/></g><defs><clipPath id="a"><path fill="#fff" d="M0 0h32v32H0z"/></clipPath></defs></svg>
